!!!COM: Victor Masse/
!!!CNT: Francais
!!!TXO: Francais
!!!OTL: La chanson de Loi2c
!!!LYR: Auguste Brizeux
!!!OPR: Chants Bretons
!!!ENC: Jacob Pegg
!!!YOR: Romantic French Song 1830-1870 -David Tunley, ed.,
!!!YOR: New York: Garland Publishing, Inc., 1995, Vol. 4
!!!ODT: 1853/
!!NB: Vocal melody and text only encoded.
!!NB: First instance of melodic material only encoded.
**kern	**silbe
*clef G2	*
*k[b-e-a-d-]	*
*M2/4	*
=19	=19
8r	.
{8c	{De\s
8f	que
8g	la
=20	=20
8a-	grive
8b-	est
8cc	e/-
8ff	-veil-
=21	=21
(8.ee-	-le/-
16dd-)	-e/,
[4cc	|
=22	=22
2cc_	|
=23	=23
2cc_	|
=24	=24
4cc]}	|}
4r	.
=25	=25
8r	.
{8dd-	{Sur
8cc	cet-
8g	-te
=26	=26
8a-	lan-
8f	-de en-
8cc	-cor
8g	mouil-
=27	=27
[4a-	-le/-
8.a-]	|
32g	|
32f	|
=28	=28
2g}	-e}
=29	=29
8r	.
{8b-	{Je
8cc	viens
8dd-	m'as-
=30	=30
8cc	-seoir
(16b-	jus-
16a-)	|
8g	-ques
8c	au
=31	=31
[2f	soir;
=32	=32
4f]}	|}
4r	.
!!mm. 33-46 identical melodically to mm. 19-32
=47	=47
8r	.
{8f	{Si,
8b-	la
8cc	mon-
=48	=48
8dd-	-ta-
8cc	-gne, ou\
8b-	je
8g	m'e/-
=49	=49
(8.cc	-ga-
16b-)	|
[4a-	-re,
=50	=50
2a-]}	|}
=51	=51
8r	.
{8f	{Ain-
8b-	-si
8cc	qu'un
=52	=52
8dd-	grand
8cc	mur
8b-	nous
8g	se/-
=53	=53
(8.cc	-pa-
16b-)	|
[4a-	-re,
=54	=54
2a-]}	|}
=55	=55
{2ee-	{Sa
=56	=56
4.ee-	dou-
8ee-	-ce
=57	=57
[2ee-	voix,
=58	=58
4ee-]}	|}
4r	.
=59	=59
{2ee-	{sa
=60	=60
4.ee-	dou-
8ff	-ce
=61	=61
(2ee-	voix,
=62	=62
2ddn)}	|}
=63	=63
8r	.
{8dd-	{Sa
8cc	voix
8b-	m'ap-
=64	=64
8a-	-pelle
(16g	au
16f)	|
8g	fond
8a-	du
=65	=65
[2f	bois.
=66	=66
4f]}	|}
4r	.
=67	=67
4r	.
{[4cc	{Ah!
=68	=68
(16cc]	|
16ff	|
16ee-	|
16dd-	|
16cc	|
16en	|
16g	|
16cc)	|
=69	=69
8cc}	|}
8r	.
{[4cc	{ah!
=70	=70
(16cc]	|
16ff	|
16ee-	|
16dd-	|
16cc	|
16en	|
16g	|
16cc	|
=71	=71
8f)}	|}
{(16f	{ah!
16a-	|
16g	|
16b-	|
16a-	|
16f)	|
=72	=72
(8g	|
16cc	|
16dd-	|
16b-	|
16cc	|
16a-	|
16b-	|
=73	=73
8g)}	|}
{(16f	{ah!
16a-	|
16g	|
16b-	|
16a-	|
16f)	|
=74	=74
(8g	|
16cc	|
16dd-	|
16b-	|
16cc	|
16a-	|
16b-	|
=75	=75
8g)}	|}
8r	.
{[4cc	{ah!
=76	=76
16cc]	|
(16ff	|
16een	|
16ddn	|
16cc	|
16e-	|
16g	|
16cc	|
=77	=77
8cc)}	|}
8r	.
{[4cc	{ah!
=78	=78
(16cc]	|
16ff	|
16ee-	|
16dd-	|
16cc	|
16en	|
16g	|
16cc)	|
=79	=79
[2fT	|
=80	=80
2fT]	|
enq	|
fq	|
=81	=81
8ff}	|}
8r	.
4r	.
=83	=83
8r	.
{8cc	{Oh!
8ee-	sur
8dd-	un
=84	=84
8cc	air
8b-	plain-
8a-	-tif
8b-	et
=85	=85
(2cc	ten-
=86	=86
4a-)}	-dre,}
4r	.
=87	=87
8r	.
{8g	{Qu'il
8g	est
8ee-	doux
=88	=88
8ee-	au
8g	loin
8g	de
8ee-	s'en-
=89	=89
(2ee-	-ten-
=90	=90
4cc)}	-dre,}
4r	.
=91	=91
8r	.
{8bn	{Sans
8ddn	me^-
8bn	-me a-
=92	=92
(4g	-voir
4ee-)}	|}
=93	=93
8r	.
{8ddn	{l'heur
8ff	de
8ddn	se
=94	=94
8b-	voir
8bn	Sans
8cc	me^-
8ddn	-me a-
=95	=95
8ee-	-voir
8ff	l'heur
8ee-	de
8cc	se
=96	=96
(2ddn	voir!
=97	=97
2dd-)}	|}
=98	=98
8r	.
{8cc	{De
8ee-	la
8dd-	mon-
=99	=99
8cc	-ta-
8b-	-gne a\
8a-	la
8b-	val-
=100	=100
(2cc	-le/-
=101	=101
4a-)}	-e}
4r	.
!!no new melodic material; written-out repeats
*-	*-
